X:1
T:Hodie Christus natus est
T:Hodie Christus natus est
T:André Vierendeels (15/04/11)
C:André Vierendeels
C:(15/04/11)
%%score [ 1 2 3 4 ]
L:1/8
Q:1/4=120
M:2/2
K:F
V:1 treble nm="Soprano" snm="S"
V:2 treble nm="Alto" snm="A"
V:3 treble-8 nm="Tenor" snm="T"
V:4 bass nm="Bass" snm="B"
V:1
"^Lyrics from 2nd vespers for Christmas" c6 B2 | G8 | AGAB cBAG | ABcd cBAG | FGAB cBAG | %5
w: Ho- di-|e|Chri- * * * * * * *|||
 A2 A4 c2 | B8 | c6 B2 | G8 | F4 c4 | G4 B4 | c2 A4 G2 | A4 c2 A2 | B2 G2 A4 | D8 | c6 B2 | G8 | %17
w: stus na- tus|est:|Ho- di-|e|Sal- va-|||* tor ap-|pa- * ru-|it:|Ho- di-|e|
 A6 A2 | B4 A4 | G4 c4- | c2 B2 A4 | A4 =B4 | c4 d4 | d6 c2 | A8 | c6 B2 | G8 | FGAB cBAF | %28
w: in ter-|ra ca-|nunt An-|* ge- li,|lae tan-|tur Ar-|chan- ge-|li:|Ho- di-|e|ex- * * * sul- * * *|
 GABA G2 A2 | G4 F2 B2 | cBAG FGAG | FGAB c4 | c8 | c4 B4 | A4 F4 | G4 A4 | G8 | F8 | d4 c2 B2 | %39
w: tant _ _ _ ju- *|sti, di- *|cen- * * * * * * *|* * * * tes:|Glo-|ri- a|in ex-|cel- sis|De-|o.|Al- le- lu-|
 B4 A4 | G2 G2 ^F4 | G4 A2 B2 | c4 A4 | G2 G2 A4 | F2 B2 A4 | G8 | A8 |] %47
w: ia, Al-|le- lu- ia,|Al- le- lu-|ia, Al-|le- lu- ia,|Al- * le-|lu-|ia.|
V:2
 F6 F2 | E8 | FEFG AGFE | FGAB AGFE | DEFG AGFE | F2 F4 E2 | F8 | F6 F2 | E8 | D4 A4 | %10
w: Ho- di-|e|Chri- * * * * * * *|||stus na- tus|est:|Ho- di-|e|Sal- va-|
 F2 E2 G2 ED | C2 F2 E4 | F4 E2 C2 | D2 G4 ^F2 | G8 | F6 F2 | E8 | F6 E2 | G4 ^F4 | D4 E4 | %20
w: ||* tor ap-|pa- * ru-|it:|Ho- di-|e|in ter-|ra ca-|nunt An-|
 F2 D2 E4 | ^F4 G4 | F4 F4 | F6 G2 | ^F8 |"^-natural" F6 F2 | E8 | C2 D2 CD F2 | EFGF E2 F2- | %29
w: ge- * li,|lae- tan-|tur Ar-|chan- ge-|li:|Ho- di-|e|ex- sul tant _ _|_ _ _ _ ju- *|
 F2 E2 F4 | AGFE DEFE | DE F4 E2 | F6 G2 | AG F2 D4 | FEDC DE F2 | E4 FE F2 | GFED E4 | C8 | %38
w: * * sti,|di- * * * cen- * * *|* * * tes:|Glo- ri-|a _ _ in|ex- * * * * * *|cel- * * sis|De- * * * *|o.|
 F4 G2 G2 | F4 F4 | F2 E2 D4 | E4 F2 D2 | A4 E2 F2 | _E2 D2 A4 | D4 F4- | F2 EF ED E2 | F8 |] %47
w: Al- le- lu-|ia, Al-|le- lu- ia,|Al le- lu-|ia, Al- le-|lu- * ia,|Al le|_ lu- * * * *|ia.|
V:3
 A6 d2 | c8 | cBcd cdcB | cBAG FGAB | ABcd cdcB | c2 d4 c2 | d8 | A6 d2 | c8 | z4 F4 | c4 d2 cd | %11
w: Ho- di-|e|Chri- * * * * * * *|||stus na- tus|est:|Ho- di-|e-|Sal-|va- * * *|
 e2 d4 ^c2 | d4 G2 F2 | FGBc d3 c | =B8 | A6 d2 | c8 | c4 c4 | d4 A4 | B4 G4 | A4 ^c4 | d4 d4 | %22
w: |* tor ap-|pa- * * * * ru-|it:|Ho- di-|e|in ter-|ra ca-|nunt An-|ge- li,|lae- tan-|
 c4 A4 | d6 e2 | d8 | A6 d2 | c8 | AGAF AG A2 | c2 d2 c2 AB | c2 Bc d2 B2 | cdcB AGFG | B4 G4 | %32
w: tur Ar-|chan- ge-|li:|Ho- di-|e|ex- * * * sul- * *|tant ju- * * *|* * * sti, di-|cen- * * * * * * *|* tes:|
 A6 B2 | cB A2 GABc | dcBA BcAB | c3 B A2 d2 | c3 B cdcB | A8 | B4 _e2 e2 | d4 c4 | c2 B2 A4 | %41
w: Glo- ri-|a _ _ in _ _ _|ex- * * * * * * *|cel- * * sis|De- * * * * *|o,|Al le- lu-|ia, Al-|le- lu- ia,|
 c4 A2 B2 | c4 c2 d2 | B2 d2 ^c4 | d4 A4 | c2 BA G2 c2 | c8 |] %47
w: Al le- lu-|ia, Al- le-|lu- * ia,|Al- le-|lu- * * * *|ia.|
V:4
 F,6 B,,2 | C,8 | F,8- | F,8- | F,8 | F,2 D,4 A,2 | B,8 | F,6 B,,2 | C,8 | z8 | C,4 G,3 F, | A,8 | %12
w: Ho- di-|e|Chri-|||stus na- tus|est:|Ho- di-|e||Sal- va- *||
 D,4 C,2 F,2 | B,2 G,2 D,4 | G,8 | F,6 B,,2 | C,8 | F,6 A,2 | G,4 D,4 | G,4 C,4 | F,2 G,2 A,4 | %21
w: * tor ap-|pa- * ru-|it:|Ho- di-|e|in ter-|ra ca-|nunt An-|ge- * li,|
 D,4 G,,4 | A,,4 D,4 | B,,6 C,2 | D,8 | F,6 B,,2 | C,8 | F,E,D,B,, F,G,F,D, | C,2 B,,2 C,2 D,2 | %29
w: lae- tan-|tur Ar-|chan- ge-|li:|Ho- di-|e|ex- * * * sul- * * *|tant ju- * *|
 C,4 B,,4 | F,2 D,3 C,A,,C, | B,,4 C,4 | F,E,D,C, F,E,D,E, | F,4 G,4 | D,E,F,A, B,A, F,2 | %35
w: * sti,|di- cen- * * *|* tes:|Glo- * * * ri- * * *|a in|ex- * * * cel- * *|
 C,4 F,2 D,2 | E,4 C,4 | F,8 | B,,4 C,2 _E,2 | B,,4 F,4 | C,2 G,2 D,4 | C,4 D,2 B,,2 | %42
w: * * sis|De- *|o,|Al- le- lu|ia, Al-|le- lu- ia,|Al le- lu-|
 F,4 A,2 D,2 | _E,2 G,2 A,4 | B,2 B,,2 D,4 | C,8 | F,8 |] %47
w: ia, Al- le-|lu- * ia,|Al- * le-|lu-|ia.|

